packages/core/src/svgs/polypad.svg

<svg width="24" height="24" viewBox="0 0 24 24" fill="none" xmlns="http://www.w3.org/2000/svg">
<g clip-path="url(#clip0_31_16304)">
<path d="M0 0H24V24H0V0Z" fill="url(#paint0_linear_31_16304)"/>
<path d="M18.4284 15.6386V8.35293L11.9999 4.71436L5.57129 8.35293V15.6386L7.71415 16.8429V9.57007L11.9999 7.12721L16.2856 9.57007V14.4301L11.9999 16.8644V19.2858L18.4284 15.6386Z" fill="url(#paint1_linear_31_16304)"/>
<path d="M15 10.3156L12 8.63135L9 10.3156V17.6013L10.7143 18.5271V11.2542L12 10.5042L13.2857 11.2542V12.7456L12 13.4956V15.3599L15 13.6842V10.3156Z" fill="url(#paint2_linear_31_16304)"/>
<path opacity="0.2" d="M18.4284 8.35293L11.9999 4.71436L5.57129 8.35293L7.70557 9.57007L11.9999 7.12721L16.2941 9.57007L18.4284 8.35293Z" fill="white"/>
<path opacity="0.2" d="M12.0002 8.63135L9.02588 10.3156L10.6802 11.2542L12.0002 10.4999L13.3202 11.2499L15.0002 10.3156L12.0002 8.63135Z" fill="white"/>
</g>
<defs>
<linearGradient id="paint0_linear_31_16304" x1="4.46571" y1="4.16143" x2="29.2071" y2="32.58" gradientUnits="userSpaceOnUse">
<stop stop-color="#1A1E21"/>
<stop offset="1" stop-color="#06060A"/>
</linearGradient>
<linearGradient id="paint1_linear_31_16304" x1="15.2141" y1="6.53578" x2="8.96558" y2="17.5629" gradientUnits="userSpaceOnUse">
<stop stop-color="#4E4AFF"/>
<stop offset="1" stop-color="#A873FF"/>
</linearGradient>
<linearGradient id="paint2_linear_31_16304" x1="13.4829" y1="9.47563" x2="8.91857" y2="17.5328" gradientUnits="userSpaceOnUse">
<stop stop-color="#4E4AFF"/>
<stop offset="1" stop-color="#A873FF"/>
</linearGradient>
<clipPath id="clip0_31_16304">
<rect width="24" height="24" fill="white"/>
</clipPath>
</defs>
</svg>

<svg xmlns="http://www.w3.org/2000/svg" width="24" height="24" fill="none" viewBox="0 0 24 24"><g clip-path="url(#a)"><path fill="url(#b)" d="M0 0h24v24H0z"/><path fill="url(#c)" d="M18.428 15.639V8.353L12 4.714 5.57 8.353v7.286l2.143 1.204V9.57L12 7.127l4.286 2.443v4.86L12 16.864v2.422z"/><path fill="url(#d)" d="M15 10.316 12 8.63l-3 1.685V17.6l1.714.926v-7.273l1.286-.75 1.286.75v1.492l-1.286.75v1.864l3-1.676z"/><path fill="#fff" d="M18.428 8.353 12 4.714 5.57 8.353 7.706 9.57 12 7.127l4.294 2.443z" opacity=".2"/><path fill="#fff" d="m12 8.631-2.974 1.685 1.654.938L12 10.5l1.32.75 1.68-.934z" opacity=".2"/></g><defs><linearGradient id="b" x1="4.466" x2="29.207" y1="4.161" y2="32.58" gradientUnits="userSpaceOnUse"><stop stop-color="#1A1E21"/><stop offset="1" stop-color="#06060A"/></linearGradient><linearGradient id="c" x1="15.214" x2="8.966" y1="6.536" y2="17.563" gradientUnits="userSpaceOnUse"><stop stop-color="#4E4AFF"/><stop offset="1" stop-color="#A873FF"/></linearGradient><linearGradient id="d" x1="13.483" x2="8.919" y1="9.476" y2="17.533" gradientUnits="userSpaceOnUse"><stop stop-color="#4E4AFF"/><stop offset="1" stop-color="#A873FF"/></linearGradient><clipPath id="a"><path fill="#fff" d="M0 0h24v24H0z"/></clipPath></defs></svg>
